X: 1
T: String Quartet in D Major opus 76 no 5 mvt 3
C: Franz Joseph Haydn
%%abc-version 2.0
%%abcx-abcm2ps-target-version 5.9.1 (29 Sep 2008)
%%abc-creator hum2abc beta
%%abcx-conversion-date 2021/02/14 14:38:28
%%abc-copyright Copyright (c) 1994, 2000 Center for Computer Assisted Research in the Humanities
%%abc-edited-by Frances Bennion
%%abcx-initial-encoding-date 1997/04/15
%%gracespace 0 6 6
%%humdrum-veritas 3104826000
%%humdrum-veritas-data 2317603720
%%linebreak <none>
%%barnumbers 0
L: 1/8
M: 3/4
N: Derived from op76n5-03.krn
Q: "Menuetto: Allegro"
%%staves [1 2 3 4]
V: 1
V: 2
V: 3 clef=alto
V: 4 clef=bass
K: D
[V:1]z4 A,2 [I:setbarnb1]|
[V:2]z4 z2 |
[V:3]z4 z2 |
[V:4]z4 z2 |
[V:1]D2 F2 A2 |
[V:2]D4 A,2 |
[V:3]F,4 D,2 |
[V:4]D,,4 F,,2 |
[V:1]A2 G2 F2 |
[V:2]B,6 |
[V:3]D,2 E,2 F,2 |
[V:4]G,,6 |
[V:1]E2 D2 E2 |
[V:2]C6 |
[V:3]G,6 |
[V:4]A,,6 |
[V:1]EF D2 d2 |
[V:2]CD D2 D2 |
[V:3]G,F, F,2 F,2 |
[V:4]D,2 z4 |
[V:1]B2 ^A2 B2 |
[V:2]D6- |
[V:3]G,2 F,2 G,2 |
[V:4]z6 |
[V:1]^GA D2 f2 |
[V:2]D2 z2 d2 |
[V:3]F,2 z2 A2 |
[V:4]z2 z2 D,,2 |
[V:1]^G2 F2 G2 |
[V:2]D6 |
[V:3]B,6 |
[V:4]E,6 |
[V:1]^GA A,2 a2 |
[V:2]C2 z4 |
[V:3]A,2 z4 |
[V:4]A,,2 z4 |
[V:1]^ga B2 ^ab |
[V:2]z2 A2 z2 |
[V:3]z2 F2 z2 |
[V:4]z2 ^D2 z2 |
[V:1]B2 fg A2 |
[V:2]G2 z2 G2 |
[V:3]G2 z2 E2 |
[V:4]E2 z2 C2 |
[V:1]^ga A2 c'd' |
[V:2]z2 F2 A2 |
[V:3]z2 F2 D2 |
[V:4]z2 D2 F,2 |
[V:1]^ab fg ab |
[V:2]B2 z2 ^ab |
[V:3]D2 z2 ^AB |
[V:4]G,4 z2 |
[V:1]fg ^de ^AB |
[V:2]fg ^de ^AB |
[V:3]FG ^DE ^AB |
[V:4]z2 z2 ^A,B, |
[V:1]FG ^DE FG |
[V:2]FG ^DE FG |
[V:3]FG ^DE FG |
[V:4]F,G, ^D,E, F,G, |
[V:1]^DE FG AB |
[V:2]^DE FG AB |
[V:3]^DE FG FG |
[V:4]^D,E, F,G, F,G, |
[V:1]D2 C2 A,2 |
[V:2]D2 C2 z2 |
[V:3]A2 A,2 z2 |
[V:4]A,2 A,,2 z2 |
[V:1]D2 F2 A2 |
[V:2]D4 A,2 |
[V:3]F,4 D,2 |
[V:4]D,,4 F,,2 |
[V:1]A2 G2 F2 |
[V:2]B,6 |
[V:3]D,2 E,2 F,2 |
[V:4]G,,6 |
[V:1]E2 D2 E2 |
[V:2]C6 |
[V:3]G,6 |
[V:4]A,,6 |
[V:1]EF D2 d2 |
[V:2]CD D2 D2 |
[V:3]G,F, F,2 F,2 |
[V:4]D,2 z4 |
[V:1]B2 ^A2 B2 |
[V:2]D6- |
[V:3]G,2 F,2 G,2 |
[V:4]z6 |
[V:1]^GA D2 a2 |
[V:2]D2 z2 A2 |
[V:3]F,2 z2 F2 |
[V:4]z6 |
[V:1]g2 f2 g2 |
[V:2]B4 c2 |
[V:3]E4 A,2 |
[V:4]z6 |
[V:1]^ef f2 z2 |
[V:2]cd d2 z2 |
[V:3]D2 z4 |
[V:4]z2 z2 D,2 |
[V:1]z2 d'2 z2 |
[V:2]z2 d2 z2 |
[V:3]z2 D2 z2 |
[V:4]C,D, F,,2 ^D,E, |
[V:1]d'2 z2 d'2 |
[V:2]e2 z2 f2 |
[V:3]D2 z2 =C2 |
[V:4]G,,2 ^E,F, A,,2 |
[V:1]z2 d'2 b2 |
[V:2]z2 g2 g2 |
[V:3]z2 B,2 z2 |
[V:4]F,G, B,,2 z2 |
[V:1]^ab G2 b2 |
[V:2]fg G2 g2 |
[V:3]z2 G2 F2 |
[V:4]z2 E,2 D,2 |
[V:1]ba e'2 g2 |
[V:2]g4 e2 |
[V:3]E4 A2 |
[V:4]C,4 C,2 |
[V:1]gf a2 f2 |
[V:2]ed f2 A2 |
[V:3]A2 z2 A2 |
[V:4]D,2 z2 D,2 |
[V:1]fe g2 c2 |
[V:2]B2 z2 G2 |
[V:3]G2 z2 E2 |
[V:4]G,,2 z2 A,,2 |
[V:1]cd D2 z2 |
[V:2]F2 D2 z2 |
[V:3]D2 D,2 z2 |
[V:4]D,2 D,,2 D,,E,, |
[V:1]z2 z2 c2 |
[V:2]z2 z2 C2 |
[V:3]z2 z2 E2 |
[V:4]=F,,G,, A,,_B,, A,,G,, |
[V:1]d2 z4 |
[V:2]D2 z4 |
[V:3]D2 z4 |
[V:4]=F,,E,, D,,E,, F,,G,, |
[V:1]z2 z2 c2 |
[V:2]z2 z2 C2 |
[V:3]z2 z2 E2 |
[V:4]A,,_B,, A,,B,, A,,G,, |
[V:1]d2 z2 c2 |
[V:2]D2 z2 C2 |
[V:3]D2 z2 E2 |
[V:4]=F,,E,, D,,_B,, A,,G,, |
[V:1]d2 z2 c2 |
[V:2]D2 z2 C2 |
[V:3]D2 z2 E2 |
[V:4]=F,,E,, D,,_B,, A,,G,, |
[V:1]d2 =f2 f2 |
[V:2]D2 d2 d2 |
[V:3]D2 z4 |
[V:4]=F,,E,, D,,E,, F,,G,, |
[V:1]e4 a2 |
[V:2]d2 =c2 A2 |
[V:3]z2 A,2 A,2 |
[V:4]A,,^G,, A,,B,, =C,A,, |
[V:1]a2 z2 a2 |
[V:2]B4 =c2 |
[V:3]A,6- |
[V:4]D,=C, D,A,, E,A,, |
[V:1]a2 z2 a2 |
[V:2]d4 =c2 |
[V:3]A,6- |
[V:4]=F,E, F,A,, E,A,, |
[V:1]a2 z2 a2 |
[V:2]B4 A2 |
[V:3]A,6 |
[V:4]D,=C, D,A,, C,A,, |
[V:1]a2 z2 ^g2 |
[V:2]B6 |
[V:3]=F4 ED |
[V:4]D,=C, D,B,, E,E,, |
[V:1]a2 z2 cd |
[V:2]A2 z2 z2 |
[V:3]=C2 z2 ED |
[V:4]A,,2 A,2 z2 |
[V:1]e=f ga _bc |
[V:2]z6 |
[V:3]C_B, A,G, =F,E, |
[V:4]z6 |
[V:1]de =fd cd |
[V:2]z6 |
[V:3]=F,E, D,=F ED |
[V:4]z6 |
[V:1]e=f ga _bc |
[V:2]z6 |
[V:3]C_B, A,G, =F,E, |
[V:4]z6 |
[V:1]de =f^f ga |
[V:2]z2 >_e2 d=c |
[V:3]=F,E, D,2 z2 |
[V:4]z6 |
[V:1]_b=c' d'e =fg |
[V:2]_BA Gd =cB |
[V:3]z6 |
[V:4]z6 |
[V:1]a_b =c'd e=f |
[V:2]AG =F=c _BA |
[V:3]z6 |
[V:4]z6 |
[V:1]ga _bg ed |
[V:2]G=F EF G^G |
[V:3]z6 |
[V:4]z6 |
[V:1]ce ^ga z2 |
[V:2]A2 z4 |
[V:3]z6 |
[V:4]z2 z2 D,,E,, |
[V:1]z2 z2 c2 |
[V:2]z2 z2 C2 |
[V:3]z2 z2 E2 |
[V:4]=F,,G,, A,,_B,, A,,G,, |
[V:1]d2 z4 |
[V:2]D2 z4 |
[V:3]D2 z4 |
[V:4]=F,,E,, D,,E,, F,,G,, |
[V:1]z2 z2 c2 |
[V:2]z2 z2 C2 |
[V:3]z2 z2 E2 |
[V:4]A,,_B,, A,,B,, A,,G,, |
[V:1]d2 z2 c2 |
[V:2]D2 z2 C2 |
[V:3]D2 z2 E2 |
[V:4]=F,,E,, D,,_B,, A,,G,, |
[V:1]d2 z2 c2 |
[V:2]D2 z2 C2 |
[V:3]D2 z2 E2 |
[V:4]=F,,E,, D,,_B,, A,,G,, |
[V:1]d2 z2 f2 |
[V:2]D2 z2 F2 |
[V:3]D2 z2 A2 |
[V:4]=F,,E,, D,,_E, D,=C, |
[V:1]g2 z2 ^g2 |
[V:2]G2 z2 ^G2 |
[V:3]G2 z2 B2 |
[V:4]_B,,A,, G,,=F, E,D, |
[V:1]a2 z_b ag |
[V:2]A2 zE =FG |
[V:3]A2 zC DE |
[V:4]C,B,, A,,2 z2 |
[V:1]=fe d_b ag |
[V:2]A_B AE =FG |
[V:3]=FG FC DE |
[V:4]z6 |
[V:1]=fe dd' =c'_b |
[V:2]A_B A=F GA |
[V:3]=FG FD EF |
[V:4]z2 >D,2 E,=F, |
[V:1]ag =fe d=c |
[V:2]_B2 z4 |
[V:3]G2 z4 |
[V:4]G,2 z4 |
[V:1]_BA G=F EA |
[V:2]c2 z4 |
[V:3]E2 z4 |
[V:4]A,2 z4 |
[V:1]D2 z4 |]
[V:2]d2 z4 |]
[V:3]D2 z4 |]
[V:4]D,2 z4 |]

